dist/img/partners/logo-3.svg

<svg width="93" height="26" viewBox="0 0 93 26" fill="none" xmlns="http://www.w3.org/2000/svg">
<path d="M22.7435 6.76822C22.7433 6.76778 22.7429 6.76697 22.7425 6.76614C22.7414 6.7647 22.7402 6.76284 22.7392 6.7614C22.7135 6.71853 22.6862 6.67711 22.6569 6.63671C22.6493 6.6262 22.6412 6.61631 22.6331 6.6058C22.61 6.5755 22.5862 6.54603 22.561 6.51738C22.5468 6.5011 22.5316 6.48523 22.517 6.46957C22.4965 6.44855 22.4759 6.42773 22.4543 6.40733C22.4345 6.38878 22.414 6.37044 22.3936 6.35313C22.3746 6.33726 22.3558 6.3218 22.3363 6.30655C22.3128 6.288 22.2884 6.27048 22.2638 6.25317C22.2451 6.2404 22.2268 6.22783 22.2076 6.21546C22.1813 6.19897 22.1548 6.18331 22.1278 6.16826C22.1085 6.15734 22.0891 6.14683 22.0693 6.13673C22.0412 6.12251 22.0127 6.10891 21.9837 6.09655C21.9641 6.08789 21.9445 6.07923 21.9242 6.0712C21.8932 6.05903 21.8616 6.04812 21.8299 6.0376C21.8117 6.03183 21.7938 6.02585 21.7754 6.0207C21.7386 6.00998 21.7012 6.0005 21.6636 5.99247C21.6504 5.98979 21.6373 5.98649 21.6241 5.98401C21.5776 5.97495 21.5303 5.96815 21.4834 5.963C21.4784 5.96258 21.474 5.96176 21.4693 5.96135C21.1334 5.92775 20.7843 5.99164 20.4695 6.1695L11.6933 11.1337L5.41689 7.58328L11.6985 4.02985L15.8865 6.39723C16.6824 6.84672 17.7002 6.58003 18.1599 5.80039C18.6195 5.02053 18.3467 4.02305 17.5507 3.57294L12.531 0.735252C12.0161 0.444044 11.3816 0.444044 10.8668 0.735252L1.29621 6.14868C1.03393 6.28738 0.805337 6.49492 0.645363 6.76614C0.185489 7.54622 0.458106 8.54328 1.25405 8.99316L10.8616 14.4282C10.863 14.4291 10.8643 14.4293 10.8655 14.4301C10.9159 14.4583 10.9682 14.4825 11.0211 14.5051C11.0358 14.5115 11.0499 14.5197 11.0645 14.5255C11.0964 14.5383 11.1295 14.5472 11.1619 14.5577C11.3358 14.6152 11.5143 14.6469 11.692 14.6469C11.6925 14.6469 11.6931 14.6469 11.6937 14.6469C11.6939 14.6469 11.6945 14.6469 11.6952 14.6469C11.8769 14.6469 12.0595 14.6142 12.2366 14.554C12.265 14.5443 12.2941 14.537 12.322 14.5257C12.3388 14.5192 12.3549 14.5097 12.3716 14.5024C12.4225 14.4804 12.4729 14.4573 12.5213 14.4301C12.5227 14.4293 12.5242 14.4291 12.5256 14.4282L19.6399 10.4045V17.5112L11.6958 22.0042L3.75267 17.5112V13.0177C3.75267 12.1173 3.00736 11.3875 2.08864 11.3875C1.16952 11.3875 0.424417 12.1173 0.424417 13.0177V18.4524C0.424417 19.0348 0.741264 19.5727 1.25632 19.8639L10.8639 25.2988C11.121 25.4441 11.4085 25.5168 11.6958 25.5168C11.9831 25.5168 12.2706 25.4441 12.5279 25.2988L22.1358 19.8639C22.6509 19.5727 22.9678 19.0348 22.9678 18.4524V7.58328C22.9678 7.2861 22.8855 7.00828 22.7435 6.76822Z" fill="white"/>
<path fill-rule="evenodd" clip-rule="evenodd" d="M31.5983 15.8908C32.1536 16.2506 32.7175 16.5176 33.2901 16.6917C33.8628 16.8658 34.4267 16.9529 34.982 16.9529C35.5373 16.9529 35.9855 16.8252 36.3268 16.5698C36.6681 16.3144 36.8387 15.9836 36.8387 15.5774C36.8387 15.2408 36.7028 14.9767 36.4309 14.7852C36.159 14.5937 35.8178 14.4224 35.4071 14.2716C34.9964 14.1207 34.554 13.9669 34.0796 13.8102C33.6054 13.6535 33.1629 13.4446 32.7523 13.1834C32.3416 12.9222 32.0003 12.5769 31.7285 12.1474C31.4566 11.7179 31.3207 11.155 31.3207 10.4586C31.3207 9.92463 31.4306 9.43713 31.6504 8.99607C31.8702 8.555 32.1767 8.17482 32.57 7.85563C32.9634 7.53644 33.4348 7.28975 33.9842 7.11569C34.5337 6.94157 35.1381 6.8545 35.7975 6.8545C36.3528 6.8545 36.9052 6.90675 37.4546 7.01119C38.0042 7.11569 38.5565 7.27819 39.1118 7.49869V10.0407C38.5912 9.73894 38.0707 9.5155 37.5501 9.37038C37.0295 9.22532 36.5148 9.15275 36.0057 9.15275C35.4736 9.15275 35.0427 9.26882 34.713 9.50094C34.3834 9.73313 34.2185 10.0407 34.2185 10.4238C34.2185 10.7488 34.3544 11.0041 34.6263 11.1898C34.8981 11.3756 35.2365 11.5409 35.6413 11.6861C36.0462 11.8311 36.4887 11.982 36.9688 12.1388C37.4488 12.2954 37.8913 12.5073 38.2962 12.7743C38.7011 13.0412 39.0395 13.3923 39.3113 13.8276C39.5832 14.2629 39.7191 14.8345 39.7191 15.5426C39.7191 16.0881 39.6063 16.5901 39.3807 17.0486C39.1552 17.5071 38.8428 17.8988 38.4437 18.2238C38.0446 18.5489 37.5674 18.8013 37.0122 18.9813C36.4569 19.1611 35.8496 19.2511 35.1902 19.2511C33.9756 19.2511 32.7782 18.9899 31.5983 18.4676V15.8908ZM40.5624 6.5237H43.3908V10.9461C44.1427 10.4005 44.9352 10.1278 45.768 10.1278C46.2192 10.1278 46.6356 10.2061 47.0174 10.3628C47.3991 10.5195 47.7288 10.7401 48.0064 11.0244C48.2841 11.3088 48.501 11.6483 48.6572 12.0429C48.8133 12.4376 48.8914 12.8671 48.8914 13.3314V19.0422H46.063V13.8537C46.063 13.4939 45.9502 13.1979 45.7247 12.9658C45.4991 12.7336 45.2128 12.6175 44.8657 12.6175C44.3452 12.6175 43.8535 12.8497 43.3908 13.3139V19.0422H40.5624V6.5237ZM50.0471 10.3367H52.8754V19.0422H50.0471V10.3367ZM49.9082 8.02107C49.9082 7.55675 50.0529 7.18244 50.3421 6.89807C50.6313 6.61365 51.0072 6.47147 51.4699 6.47147C51.9095 6.47147 52.2768 6.61365 52.5718 6.89807C52.8668 7.18244 53.0143 7.55675 53.0143 8.02107C53.0143 8.46213 52.8668 8.82775 52.5718 9.11794C52.2768 9.40813 51.9095 9.55319 51.4699 9.55319C51.0072 9.55319 50.6313 9.40813 50.3421 9.11794C50.0529 8.82775 49.9082 8.46213 49.9082 8.02107ZM60.0176 14.6894C60.0176 14.051 59.8585 13.5374 59.5404 13.1486C59.2223 12.7597 58.8087 12.5653 58.2997 12.5653C57.7907 12.5653 57.3338 12.7684 56.9289 13.1747V16.2042C57.3338 16.6104 57.7907 16.8136 58.2997 16.8136C58.8087 16.8136 59.2223 16.6163 59.5404 16.2216C59.8585 15.8269 60.0176 15.3163 60.0176 14.6894ZM54.1005 10.3367H56.9289V10.8068C57.5883 10.3541 58.265 10.1278 58.9591 10.1278C59.5375 10.1278 60.0696 10.2409 60.5555 10.4673C61.0414 10.6936 61.4578 11.007 61.8048 11.4074C62.1519 11.8079 62.4208 12.2867 62.6117 12.8439C62.8029 13.401 62.8982 14.0162 62.8982 14.6894C62.8982 15.3626 62.8029 15.9778 62.6117 16.535C62.4208 17.0921 62.1519 17.5709 61.8048 17.9714C61.4578 18.3718 61.0414 18.6853 60.5555 18.9116C60.0696 19.1379 59.5375 19.2511 58.9591 19.2511C58.265 19.2511 57.5883 19.0248 56.9289 18.5721V22.8551H54.1005V10.3367ZM66.6742 16.8136H68.5304C68.9701 16.8136 69.3314 16.683 69.6148 16.4218C69.8982 16.1606 70.0402 15.8269 70.0402 15.4207C70.0402 15.0144 69.8982 14.6808 69.6148 14.4196C69.3314 14.1584 68.9701 14.0278 68.5304 14.0278H66.6742V16.8136ZM66.6742 11.8689H68.2874C68.6923 11.8689 69.028 11.747 69.294 11.5033C69.56 11.2595 69.6933 10.9519 69.6933 10.5804C69.6933 10.1974 69.56 9.88694 69.294 9.64894C69.028 9.411 68.6923 9.29207 68.2874 9.29207H66.6742V11.8689ZM63.9148 7.06344H68.8256C69.3576 7.06344 69.8434 7.14469 70.2832 7.30719C70.7229 7.46969 71.1041 7.69607 71.428 7.98619C71.7519 8.27638 72.0036 8.61882 72.183 9.01344C72.3624 9.40813 72.4521 9.83757 72.4521 10.3019C72.4521 10.8939 72.3132 11.422 72.0354 11.8863C71.7582 12.3506 71.3763 12.693 70.8905 12.9135C71.5152 13.1457 71.998 13.5084 72.3393 14.0017C72.6807 14.495 72.8513 15.0609 72.8513 15.6993C72.8513 16.1868 72.7585 16.6366 72.5735 17.0486C72.3885 17.4607 72.1313 17.8147 71.8011 18.1107C71.4716 18.4067 71.0786 18.6359 70.6214 18.7984C70.1642 18.9609 69.664 19.0422 69.1202 19.0422H63.9148V7.06344ZM73.1914 14.6894C73.1914 14.0162 73.3067 13.401 73.5384 12.8439C73.7695 12.2867 74.0934 11.8079 74.5101 11.4074C74.9268 11.007 75.4208 10.6936 75.9938 10.4673C76.5662 10.2409 77.1941 10.1278 77.8762 10.1278C78.5589 10.1278 79.1867 10.2409 79.7592 10.4673C80.3316 10.6936 80.8231 11.007 81.2342 11.4074C81.6447 11.8079 81.9654 12.2867 82.1972 12.8439C82.4282 13.401 82.5441 14.0162 82.5441 14.6894C82.5441 15.3511 82.4282 15.9633 82.1972 16.5263C81.9654 17.0893 81.6447 17.5709 81.2342 17.9714C80.8231 18.3718 80.3316 18.6853 79.7592 18.9116C79.1867 19.1379 78.5589 19.2511 77.8762 19.2511C77.1941 19.2511 76.5662 19.1379 75.9938 18.9116C75.4208 18.6853 74.9268 18.3718 74.5101 17.9714C74.0934 17.5709 73.7695 17.0893 73.5384 16.5263C73.3067 15.9633 73.1914 15.3511 73.1914 14.6894ZM76.0891 14.6894C76.0891 15.3511 76.2542 15.8821 76.5837 16.2825C76.9132 16.683 77.3442 16.8832 77.8762 16.8832C78.3969 16.8832 78.8248 16.683 79.1606 16.2825C79.4957 15.8821 79.6639 15.3511 79.6639 14.6894C79.6639 14.0278 79.4957 13.4968 79.1606 13.0963C78.8248 12.6959 78.3969 12.4956 77.8762 12.4956C77.3442 12.4956 76.9132 12.6959 76.5837 13.0963C76.2542 13.4968 76.0891 14.0278 76.0891 14.6894ZM89.148 14.6894C89.148 14.051 88.9891 13.5374 88.6708 13.1486C88.3532 12.7597 87.9396 12.5653 87.4307 12.5653C86.9211 12.5653 86.4646 12.7684 86.0597 13.1747V16.2042C86.4646 16.6104 86.9211 16.8136 87.4307 16.8136C87.9396 16.8136 88.3532 16.6163 88.6708 16.2216C88.9891 15.8269 89.148 15.3163 89.148 14.6894ZM83.2312 6.5237H86.0597V10.8068C86.7187 10.3541 87.3958 10.1278 88.0897 10.1278C88.6683 10.1278 89.2003 10.2409 89.6861 10.4673C90.172 10.6936 90.5887 11.007 90.9357 11.4074C91.2826 11.8079 91.5517 12.2867 91.7423 12.8439C91.9335 13.401 92.0288 14.0162 92.0288 14.6894C92.0288 15.3626 91.9335 15.9778 91.7423 16.535C91.5517 17.0921 91.2826 17.5709 90.9357 17.9714C90.5887 18.3718 90.172 18.6853 89.6861 18.9116C89.2003 19.1379 88.6683 19.2511 88.0897 19.2511C87.3958 19.2511 86.7187 19.0248 86.0597 18.5721V19.0422H83.2312V6.5237Z" fill="white"/>
</svg>

<svg width="93" height="26" fill="none" xmlns="http://www.w3.org/2000/svg"><g clip-path="url(#clip0_2:242)" opacity=".3" fill="#fff"><path d="M22.744 6.768l-.002-.002-.003-.005a1.705 1.705 0 00-.082-.124l-.024-.031a1.625 1.625 0 00-.072-.089l-.044-.047a2.142 2.142 0 00-.123-.117 2.282 2.282 0 00-.13-.1l-.056-.038a1.796 1.796 0 00-.224-.118c-.02-.01-.04-.018-.06-.026a1.867 1.867 0 00-.094-.033l-.055-.017a1.581 1.581 0 00-.111-.029l-.04-.008a1.719 1.719 0 00-.14-.021l-.015-.002a1.684 1.684 0 00-1 .208l-8.776 4.965-6.276-3.55 6.281-3.554 4.188 2.367c.796.45 1.814.183 2.274-.597.46-.78.187-1.777-.61-2.227L12.532.735a1.694 1.694 0 00-1.664 0L1.297 6.15a1.612 1.612 0 00-.042 2.844l9.607 5.435.004.002c.05.028.102.053.155.075.015.006.029.015.043.02.032.013.066.022.098.033.174.057.352.089.53.089h.003c.182 0 .364-.033.542-.093.028-.01.057-.017.085-.028.017-.007.033-.016.05-.024.05-.022.1-.045.15-.072l.004-.002 7.114-4.024v7.107l-7.944 4.493-7.943-4.493v-4.493c0-.9-.746-1.63-1.664-1.63-.92 0-1.665.73-1.665 1.63v5.434c0 .583.317 1.12.832 1.412l9.608 5.435a1.691 1.691 0 001.664 0l9.608-5.435c.515-.291.832-.83.832-1.412V7.583c0-.297-.082-.575-.224-.815z"/><path fill-rule="evenodd" clip-rule="evenodd" d="M31.598 15.89a6.71 6.71 0 001.692.802 5.796 5.796 0 001.692.26c.555 0 1.004-.127 1.345-.382.341-.256.512-.586.512-.993 0-.336-.136-.6-.408-.792a4.432 4.432 0 00-1.024-.513c-.41-.151-.853-.305-1.327-.462a5.926 5.926 0 01-1.328-.627 3.298 3.298 0 01-1.024-1.036c-.271-.43-.407-.992-.407-1.688 0-.534.11-1.022.33-1.463.22-.441.526-.821.919-1.14a4.26 4.26 0 011.414-.74 5.979 5.979 0 011.813-.261 8.854 8.854 0 013.315.644v2.542a6.71 6.71 0 00-1.562-.67 5.734 5.734 0 00-1.544-.218c-.532 0-.963.116-1.293.348-.33.232-.495.54-.495.923 0 .325.136.58.408.766.272.186.61.35 1.015.496.405.145.848.296 1.328.453.48.156.922.368 1.327.635a3.39 3.39 0 011.015 1.054c.272.435.408 1.007.408 1.715 0 .545-.113 1.047-.338 1.506a3.48 3.48 0 01-.937 1.175c-.4.325-.877.577-1.432.757-.555.18-1.162.27-1.822.27-1.214 0-2.412-.261-3.592-.783V15.89zm8.964-9.366h2.829v4.422c.752-.546 1.544-.818 2.377-.818.451 0 .868.078 1.25.235a2.923 2.923 0 011.639 1.68c.156.395.234.824.234 1.288v5.711h-2.828v-5.188c0-.36-.113-.656-.338-.888a1.146 1.146 0 00-.86-.348c-.52 0-1.012.232-1.474.696v5.728h-2.829V6.524zm9.485 3.813h2.828v8.705h-2.828v-8.705zm-.139-2.316c0-.464.145-.839.434-1.123.29-.284.665-.427 1.128-.427.44 0 .807.143 1.102.427.295.284.442.659.442 1.123 0 .441-.147.807-.442 1.097a1.51 1.51 0 01-1.102.435c-.463 0-.839-.145-1.128-.435-.29-.29-.434-.656-.434-1.097zm10.11 6.668c0-.638-.16-1.152-.478-1.54a1.528 1.528 0 00-1.24-.584c-.51 0-.966.203-1.371.61v3.03c.405.405.862.609 1.37.609.51 0 .923-.198 1.241-.592.319-.395.478-.906.478-1.533zM54.1 10.337h2.829v.47c.66-.453 1.336-.68 2.03-.68a3.702 3.702 0 012.846 1.28c.347.4.616.88.807 1.437.19.557.286 1.172.286 1.845a5.66 5.66 0 01-.286 1.846 4.287 4.287 0 01-.807 1.436c-.347.4-.764.714-1.25.94a3.734 3.734 0 01-1.596.34c-.694 0-1.37-.226-2.03-.679v4.283H54.1V10.337zm12.574 6.477h1.856c.44 0 .801-.131 1.085-.392.283-.261.425-.595.425-1.001a1.3 1.3 0 00-.425-1.001c-.284-.262-.645-.392-1.085-.392h-1.856v2.786zm0-4.945h1.613c.405 0 .741-.122 1.007-.366.266-.244.4-.551.4-.923 0-.383-.134-.693-.4-.931-.266-.238-.602-.357-1.007-.357h-1.613v2.577zm-2.76-4.806h4.912c.532 0 1.017.082 1.457.244.44.163.821.39 1.145.68.324.29.576.632.755 1.026.18.395.27.825.27 1.289 0 .592-.14 1.12-.418 1.584a2.52 2.52 0 01-1.144 1.028c.624.232 1.107.594 1.448 1.088a2.91 2.91 0 01.512 1.697c0 .488-.093.938-.278 1.35a3.13 3.13 0 01-.772 1.062 3.48 3.48 0 01-1.18.687 4.453 4.453 0 01-1.5.244h-5.206V7.063zm9.277 7.626c0-.673.116-1.288.347-1.845a4.196 4.196 0 01.972-1.437 4.5 4.5 0 011.484-.94 5.08 5.08 0 011.882-.34c.683 0 1.31.114 1.883.34a4.41 4.41 0 011.475.94c.41.4.731.88.963 1.437.231.557.347 1.172.347 1.845 0 .662-.116 1.274-.347 1.837a4.253 4.253 0 01-.963 1.445 4.41 4.41 0 01-1.475.94c-.572.227-1.2.34-1.883.34a5.06 5.06 0 01-1.882-.34 4.5 4.5 0 01-1.484-.94 4.18 4.18 0 01-.972-1.445 4.78 4.78 0 01-.347-1.837zm2.898 0c0 .662.165 1.193.495 1.593.33.401.76.601 1.292.601.52 0 .949-.2 1.285-.6.335-.4.503-.932.503-1.594 0-.661-.168-1.192-.503-1.593-.336-.4-.764-.6-1.285-.6-.532 0-.963.2-1.292.6-.33.4-.495.932-.495 1.593zm13.059 0c0-.638-.159-1.152-.477-1.54a1.526 1.526 0 00-1.24-.584c-.51 0-.966.203-1.371.61v3.03c.405.405.861.609 1.37.609.51 0 .923-.198 1.24-.592.32-.395.478-.906.478-1.533zm-5.917-8.165h2.829v4.283c.659-.453 1.336-.68 2.03-.68a3.703 3.703 0 012.846 1.28c.347.4.616.88.806 1.437.191.557.287 1.172.287 1.845a5.66 5.66 0 01-.287 1.846 4.285 4.285 0 01-.806 1.436c-.347.4-.764.714-1.25.94a3.733 3.733 0 01-1.596.34c-.694 0-1.371-.226-2.03-.679v.47h-2.83V6.524z"/></g><defs><clipPath id="clip0_2:242"><path fill="#fff" transform="translate(.422 .517)" d="M0 0h92.188v25H0z"/></clipPath></defs></svg>
